packages/core/src/svgs/rbw.svg

<svg width="24" height="24" viewBox="0 0 24 24" fill="none" xmlns="http://www.w3.org/2000/svg">
<g clip-path="url(#clip0_31_16921)">
<path d="M0 0H24V24H0V0Z" fill="#F0F3FA"/>
<path d="M12.0001 19.2858C16.0239 19.2858 19.2858 16.0239 19.2858 12.0001C19.2858 7.97628 16.0239 4.71436 12.0001 4.71436C7.97628 4.71436 4.71436 7.97628 4.71436 12.0001C4.71436 16.0239 7.97628 19.2858 12.0001 19.2858Z" fill="url(#paint0_linear_31_16921)"/>
<path fill-rule="evenodd" clip-rule="evenodd" d="M8.25879 15.7715C8.89736 16.573 10.3245 18.2015 14.1388 17.3144C13.4659 16.7358 12.1159 15.2144 12.0688 13.7701C11.4045 13.6758 10.1316 13.2001 10.3716 12.043C10.4231 12.4544 10.8259 13.3287 12.0002 13.5215C12.1759 13.5344 12.6131 13.5344 12.9559 13.4401C13.1874 13.3758 13.3245 13.4101 13.4959 13.4487C13.6374 13.483 13.8002 13.5215 14.0702 13.5215C14.6659 13.5215 15.4245 12.763 15.6988 12.4715L14.7474 11.563C14.935 11.3896 15.0802 11.1753 15.1716 10.9367C15.263 10.6981 15.2982 10.4416 15.2745 10.1872L17.5716 8.21582L14.7431 9.21868C14.2221 8.84402 13.5976 8.64036 12.9559 8.63582C11.8845 8.63582 8.68736 9.63011 8.25879 13.1572V15.7715ZM13.7788 10.033C13.5731 10.4144 13.2174 11.2201 13.4659 11.4001C13.7188 11.5801 14.1945 11.1044 14.4088 10.843C14.1945 10.7058 13.7788 10.3415 13.7788 10.033Z" fill="#F6F7F3"/>
<path d="M10.2216 9.13728C7.77871 10.7659 7.56014 14.1644 7.75728 15.6601C7.26014 14.9616 6.42871 13.5816 6.42871 12.1116C6.42871 10.933 6.90014 9.84014 7.13157 9.44157L7.68014 9.14157H9.43728L8.25014 8.41728H7.82157C8.73871 7.21728 10.4787 6.59157 11.2373 6.42871L12.3216 7.80442V6.67728L12.2273 6.42871C14.5244 6.51443 15.7116 7.71443 16.0201 8.29728L14.4001 8.653C12.8701 7.78728 10.9759 8.61443 10.2216 9.13728Z" fill="url(#paint1_linear_31_16921)"/>
<path d="M18.4284 12.0001C18.4277 13.5243 17.8854 14.9987 16.8983 16.1601C15.9113 17.3215 14.5437 18.0944 13.0395 18.3409C11.5354 18.5874 9.99262 18.2914 8.68648 17.5058C7.38033 16.7203 6.39581 15.4961 5.90859 14.0519C5.42136 12.6077 5.46313 11.0373 6.02644 9.62106C6.58976 8.20478 7.63796 7.03473 8.98402 6.31968C10.3301 5.60464 11.8864 5.39112 13.3753 5.71724C14.8642 6.04335 16.1888 6.88788 17.1127 8.10012L16.6756 8.23726C15.693 7.02644 14.2775 6.24574 12.7292 6.06056C11.1809 5.87538 9.62128 6.30026 8.38083 7.2452C7.14038 8.19014 6.31655 9.58088 6.08386 11.1228C5.85117 12.6647 6.22792 14.2366 7.13428 15.5055C8.04065 16.7744 9.40541 17.6406 10.9394 17.9206C12.4735 18.2006 14.0562 17.8723 15.3524 17.0054C16.6486 16.1385 17.5563 14.801 17.8833 13.2763C18.2103 11.7516 17.9308 10.1595 17.1041 8.83726L17.447 8.59297C18.0886 9.61356 18.4288 10.7946 18.4284 12.0001Z" fill="url(#paint2_linear_31_16921)"/>
</g>
<defs>
<linearGradient id="paint0_linear_31_16921" x1="20.4258" y1="8.36578" x2="12.0001" y2="19.2858" gradientUnits="userSpaceOnUse">
<stop stop-color="#0D183A"/>
<stop offset="0.22" stop-color="#112A73"/>
<stop offset="0.29" stop-color="#13224E"/>
<stop offset="0.46" stop-color="#18417B"/>
<stop offset="0.73" stop-color="#0F2771"/>
<stop offset="1" stop-color="#0D1839"/>
</linearGradient>
<linearGradient id="paint1_linear_31_16921" x1="15.0816" y1="8.40014" x2="9.17585" y2="16.5816" gradientUnits="userSpaceOnUse">
<stop stop-color="#8EF6EE"/>
<stop offset="0.3" stop-color="#5C71D9"/>
<stop offset="0.67" stop-color="#D73960"/>
<stop offset="1" stop-color="#F8CF44"/>
</linearGradient>
<linearGradient id="paint2_linear_31_16921" x1="5.37415" y1="11.2715" x2="19.1013" y2="15.2273" gradientUnits="userSpaceOnUse">
<stop stop-color="#1774C8"/>
<stop offset="1" stop-color="#17458A"/>
</linearGradient>
<clipPath id="clip0_31_16921">
<rect width="24" height="24" fill="white"/>
</clipPath>
</defs>
</svg>

<svg xmlns="http://www.w3.org/2000/svg" width="24" height="24" fill="none" viewBox="0 0 24 24"><g clip-path="url(#a)"><path fill="#F0F3FA" d="M0 0h24v24H0z"/><path fill="url(#b)" d="M12 19.286a7.286 7.286 0 1 0 0-14.572 7.286 7.286 0 0 0 0 14.572"/><path fill="#F6F7F3" fill-rule="evenodd" d="M8.259 15.772c.638.801 2.066 2.43 5.88 1.542-.673-.578-2.023-2.1-2.07-3.544-.665-.094-1.937-.57-1.697-1.727.051.411.454 1.286 1.628 1.479.176.012.613.012.956-.082.231-.064.369-.03.54.009.141.034.304.072.574.072.596 0 1.354-.758 1.629-1.05l-.952-.908a1.66 1.66 0 0 0 .527-1.376l2.298-1.971-2.829 1.003a3.1 3.1 0 0 0-1.787-.583c-1.072 0-4.269.994-4.697 4.521zm5.52-5.739c-.206.381-.562 1.187-.313 1.367.253.18.729-.296.943-.557-.215-.137-.63-.502-.63-.81" clip-rule="evenodd"/><path fill="url(#c)" d="M10.222 9.137c-2.443 1.629-2.662 5.027-2.465 6.523-.497-.698-1.328-2.078-1.328-3.548 0-1.179.471-2.272.703-2.67l.548-.3h1.757L8.25 8.417h-.428c.917-1.2 2.657-1.825 3.415-1.988l1.085 1.375V6.677l-.095-.248c2.297.085 3.485 1.285 3.793 1.868l-1.62.356c-1.53-.866-3.424-.039-4.178.484"/><path fill="url(#d)" d="M18.428 12a6.428 6.428 0 1 1-1.315-3.9l-.437.137a6 6 0 1 0 .428.6l.343-.244A6.4 6.4 0 0 1 18.428 12"/></g><defs><linearGradient id="b" x1="20.426" x2="12" y1="8.366" y2="19.286" gradientUnits="userSpaceOnUse"><stop stop-color="#0D183A"/><stop offset=".22" stop-color="#112A73"/><stop offset=".29" stop-color="#13224E"/><stop offset=".46" stop-color="#18417B"/><stop offset=".73" stop-color="#0F2771"/><stop offset="1" stop-color="#0D1839"/></linearGradient><linearGradient id="c" x1="15.082" x2="9.176" y1="8.4" y2="16.582" gradientUnits="userSpaceOnUse"><stop stop-color="#8EF6EE"/><stop offset=".3" stop-color="#5C71D9"/><stop offset=".67" stop-color="#D73960"/><stop offset="1" stop-color="#F8CF44"/></linearGradient><linearGradient id="d" x1="5.374" x2="19.101" y1="11.271" y2="15.227" gradientUnits="userSpaceOnUse"><stop stop-color="#1774C8"/><stop offset="1" stop-color="#17458A"/></linearGradient><clipPath id="a"><path fill="#fff" d="M0 0h24v24H0z"/></clipPath></defs></svg>
